X:22
T:Swades Hornpipe
T:Swede's Hornpipe
S:John Moore's Book 2
Z:Transcribed by Taz Tarry 04/2021
%%VWML: Moore1-4494-p22-0
F:http://www.vwml.org/record/Moore2/4494/p22
M:C|
L:1/8
K:D
DC|CB,A,G, GBAG|F2 D2 D2 dc|BdGB AcFA|B2 G2 GBAG|
FAce afdA|AGde gecG | FdBG FACE| D2 D2 D2:|
DC|B,DGB dBGF|D2 C2 C2 ED|CEAc ecAG|F2 D2 D2 GF|
GDBG FDcA|BGdB gdBG|ECeg dBAc|B2 G2 G2:|

